Origami/16x16/apps/hub.svg

<svg width="16" height="16" version="1" xmlns="http://www.w3.org/2000/svg">
 <path d="m8 0h-7.2c-0.4432 0-0.8 0.3568-0.8 0.8v7.2h8z" style="fill:#6655e4"/>
 <path d="m8 0h7.2c0.4432 0 0.8 0.3568 0.8 0.8v7.2h-8z" style="fill:#2cbfeb"/>
 <path d="m8 16h-7.2c-0.4432 0-0.8-0.3568-0.8-0.8v-7.2h8z" style="fill:#2cbfeb"/>
 <path d="m8 16h7.2c0.4432 0 0.8-0.3568 0.8-0.8v-7.2h-8z" style="fill:#f7c73c"/>
 <rect x="2" y="2" width="12" height="12" style="fill:#3f3f3f"/>
 <path d="m3.5071212 11.5h3.9999998" style="fill:none;stroke-linecap:round;stroke:#ffffff"/>
 <path d="m3.5071212 5.5h2.000002m0 2.000001v-4.0000005m-2.000002 4.0000005v-4.0000005" style="fill:none;stroke-linecap:round;stroke-width:.99999994;stroke:#ffffff"/>
 <path d="m7.507072 5.500051s2.000001-0.2322505 2.000001 0.999999c0 1.23225-2.000001 1-2.000001 1m4.9e-5 -4.00005v4.000001m-4.9e-5 -1.988663s2.000001 0.232251 2.000001-0.9999985c0-1.232251-2.000001-1.0000005-2.000001-1.0000005m4.9e-5 4.00005v-4.000001" style="fill:none;stroke-linecap:round;stroke-linejoin:bevel;stroke-width:.99999994;stroke:#ffffff"/>
</svg>

<svg xmlns="http://www.w3.org/2000/svg" width="16" height="16" version="1">
 <path style="fill:#6655e4" d="M 8,0 H 0.8 C 0.3568,0 0,0.3568 0,0.8 V 8 h 8 z"/>
 <path style="fill:#2cbfeb" d="m 8,0 h 7.2 C 15.6432,0 16,0.3568 16,0.8 V 8 H 8 Z"/>
 <path style="fill:#2cbfeb" d="M 8,16 H 0.8 C 0.3568,16 0,15.6432 0,15.2 V 8 h 8 z"/>
 <path style="fill:#f7c73c" d="m 8,16 h 7.2 C 15.6432,16 16,15.6432 16,15.2 V 8 H 8 Z"/>
 <rect style="fill:#3f3f3f" width="12" height="12" x="2" y="2"/>
 <path style="fill:none;stroke:#ffffff;stroke-linecap:round" d="M 3.5071212,11.5 H 7.507121"/>
 <path style="fill:none;stroke:#ffffff;stroke-width:0.99999994;stroke-linecap:round" d="m 3.5071212,5.5 h 2.000002 m 0,2.000001 V 3.5000005 M 3.5071212,7.500001 v -4.0000005 0"/>
 <path style="fill:none;stroke:#ffffff;stroke-width:0.99999994;stroke-linecap:round;stroke-linejoin:bevel" d="m 7.507072,5.500051 c 0,0 2.000001,-0.2322505 2.000001,0.999999 0,1.23225 -2.000001,1 -2.000001,1 M 7.507121,3.5 v 4.000001 m -4.9e-5,-1.988663 c 0,0 2.000001,0.232251 2.000001,-0.9999985 0,-1.232251 -2.000001,-1.0000005 -2.000001,-1.0000005 m 4.9e-5,4.00005 V 3.511388"/>
</svg>
